images/routers/tp-link-cpe210-v1.0.svg

<?xml version="1.0" encoding="UTF-8"?>
<svg width="1600" height="1437.5" viewBox="0 0 1600 1437.5" xmlns="http://www.w3.org/2000/svg"><defs><clipPath id="a"><path d="m475.43 137.12h310.26v-33.485h-310.27v33.485z" clip-rule="evenodd"/></clipPath><linearGradient id="b" x1="698.46" x2="698.78" y1="1046.8" y2="1007.2" gradientTransform="matrix(1 0 0 -1 0 1150)" gradientUnits="userSpaceOnUse"><stop stop-color="#fff" offset="0"/><stop offset="1"/></linearGradient><clipPath id="c"><path d="m495.92 1008.4h28.794l1.603 39.963-30.397-39.963z" clip-rule="evenodd"/></clipPath><linearGradient id="d" x1="532.66" x2="496.26" y1="148.92" y2="75.429" gradientTransform="matrix(1 0 0 -1 0 1150)" gradientUnits="userSpaceOnUse"><stop stop-color="#fff" offset="0"/><stop offset="1"/></linearGradient><clipPath id="e"><path d="m724.33 1008.4h34.494l-39.484 40.023 4.99-40.023z" clip-rule="evenodd"/></clipPath><linearGradient id="f" x1="715.94" x2="741.81" y1="152.38" y2="82.135" gradientTransform="matrix(1 0 0 -1 0 1150)" gradientUnits="userSpaceOnUse"><stop stop-color="#fff" offset="0"/><stop offset="1"/></linearGradient><clipPath id="g"><path d="m524.78 1008.4h199.6l-4.991 39.914h-193.06l-1.554-39.914z" clip-rule="evenodd"/></clipPath><linearGradient id="h" x1="612.64" x2="616.66" y1="145.31" y2="57.163" gradientTransform="matrix(1 0 0 -1 0 1150)" gradientUnits="userSpaceOnUse"><stop stop-color="#fff" offset="0"/><stop offset="1"/></linearGradient></defs><g transform="matrix(1.25 0 0 -1.25 0 1437.5)" clip-path="url(#a)"><path d="m475.43 137.12h310.26v-33.485h-310.27v33.485z" fill="url(#b)" fill-rule="evenodd"/></g><path d="m596.22 265.58h384.29v999.38h-384.29v-999.38zm13.47-89.389-13.47 89.389h384.84l-22.956-89.389-55.111-57.666h-248.32l-44.981 57.666z" fill="#ebebeb" fill-rule="evenodd" stroke="#000" stroke-linecap="round" stroke-linejoin="round" stroke-miterlimit="1.414" stroke-width="4.375"/><g transform="matrix(1.25 0 0 -1.25 0 1437.5)" clip-path="url(#c)"><path d="m495.92 1008.4h28.794l1.603 39.963-30.397-39.963z" fill="url(#d)" fill-rule="evenodd"/></g><path d="m619.9 176.98h35.992l2.005-49.953-37.997 49.953z" fill="none" stroke="#000" stroke-linecap="round" stroke-linejoin="round" stroke-miterlimit="1.414" stroke-width=".625"/><g transform="matrix(1.25 0 0 -1.25 0 1437.5)" clip-path="url(#e)"><path d="m724.33 1008.4h34.494l-39.484 40.023 4.99-40.023z" fill="url(#f)" fill-rule="evenodd"/></g><path d="m905.42 176.99h43.117l-49.354-50.03 6.237 50.03z" fill="none" stroke="#000" stroke-linecap="round" stroke-linejoin="round" stroke-miterlimit="1.414" stroke-width=".625"/><g transform="matrix(1.25 0 0 -1.25 0 1437.5)" clip-path="url(#g)"><path d="m524.78 1008.4h199.6l-4.991 39.914h-193.06l-1.554-39.914z" fill="url(#h)" fill-rule="evenodd"/></g><path d="m655.97 176.98h249.5l-6.239-49.893h-241.32l-1.942 49.892z" fill="none" stroke="#000" stroke-linecap="round" stroke-linejoin="round" stroke-miterlimit="1.414" stroke-width=".625"/></svg>

<svg xmlns="http://www.w3.org/2000/svg" viewBox="0 0 1600 1437.5" height="1437.5" width="1600"><defs><clipPath id="a"><path d="M475.432 137.125h310.264V103.64H475.43v33.485z" clip-rule="evenodd"/></clipPath><linearGradient id="b" gradientTransform="matrix(1 0 0 -1 0 1150)" gradientUnits="userSpaceOnUse" y2="1007.239" x2="698.781" y1="1046.792" x1="698.464"><stop offset="0" stop-color="#fff"/><stop offset="1"/></linearGradient><clipPath id="c"><path d="M495.921 1008.413h28.794l1.603 39.963-30.397-39.963z" clip-rule="evenodd"/></clipPath><linearGradient id="d" gradientTransform="matrix(1 0 0 -1 0 1150)" gradientUnits="userSpaceOnUse" y2="75.429" x2="496.258" y1="148.919" x1="532.663"><stop offset="0" stop-color="#fff"/><stop offset="1"/></linearGradient><clipPath id="e"><path d="M724.334 1008.405h34.494l-39.484 40.023 4.99-40.023z" clip-rule="evenodd"/></clipPath><linearGradient id="f" gradientTransform="matrix(1 0 0 -1 0 1150)" gradientUnits="userSpaceOnUse" y2="82.135" x2="741.808" y1="152.377" x1="715.935"><stop offset="0" stop-color="#fff"/><stop offset="1"/></linearGradient><clipPath id="g"><path d="M524.777 1008.417h199.6l-4.991 39.914H526.331l-1.554-39.914z" clip-rule="evenodd"/></clipPath><linearGradient id="h" gradientTransform="matrix(1 0 0 -1 0 1150)" gradientUnits="userSpaceOnUse" y2="57.163" x2="616.664" y1="145.311" x1="612.643"><stop offset="0" stop-color="#fff"/><stop offset="1"/></linearGradient></defs><g clip-path="url(#a)" transform="matrix(1.25 0 0 -1.25 0 1437.5)"><path d="M475.432 137.125h310.264V103.64H475.43v33.485z" fill="url(#b)" fill-rule="evenodd"/></g><path d="M596.223 265.58H980.51v999.376H596.223V265.58zM609.693 176.191l-13.47 89.389H981.06l-22.956-89.389-55.111-57.666h-248.32l-44.981 57.666z" fill="#ebebeb" fill-rule="evenodd" stroke="#000" stroke-width="4.375" stroke-linecap="round" stroke-linejoin="round" stroke-miterlimit="1.414"/><g clip-path="url(#c)" transform="matrix(1.25 0 0 -1.25 0 1437.5)"><path d="M495.921 1008.413h28.794l1.603 39.963-30.397-39.963z" fill="url(#d)" fill-rule="evenodd"/></g><path d="M619.901 176.983h35.992l2.005-49.953-37.997 49.953z" fill="none" stroke="#000" stroke-width=".625" stroke-linecap="round" stroke-linejoin="round" stroke-miterlimit="1.414"/><g clip-path="url(#e)" transform="matrix(1.25 0 0 -1.25 0 1437.5)"><path d="M724.334 1008.405h34.494l-39.484 40.023 4.99-40.023z" fill="url(#f)" fill-rule="evenodd"/></g><path d="M905.418 176.994h43.117l-49.354-50.03 6.237 50.03z" fill="none" stroke="#000" stroke-width=".625" stroke-linecap="round" stroke-linejoin="round" stroke-miterlimit="1.414"/><g clip-path="url(#g)" transform="matrix(1.25 0 0 -1.25 0 1437.5)"><path d="M524.777 1008.417h199.6l-4.991 39.914H526.331l-1.554-39.914z" fill="url(#h)" fill-rule="evenodd"/></g><g><path d="M655.971 176.98h249.5l-6.239-49.893H657.913l-1.942 49.892z" fill="none" stroke="#000" stroke-width=".625" stroke-linecap="round" stroke-linejoin="round" stroke-miterlimit="1.414"/></g></svg>
